static/image/404.svg

<svg width="128" height="128" viewBox="0 0 128 128" fill="none" xmlns="http://www.w3.org/2000/svg">
<g clip-path="url(#clip0_110_302)">
<path d="M128 0H0V128H128V0Z" fill="#EFEFEF"/>
<path d="M52.6989 59.2101V58.3408L56.5341 52.2726H57.1648V53.6192H56.7386L53.8409 58.2044V58.2726H59.0057V59.2101H52.6989ZM56.8068 60.9999V58.9459V58.5411V52.2726H57.8125V60.9999H56.8068ZM63.4492 61.1192C62.8072 61.1192 62.2603 60.9445 61.8086 60.5951C61.3569 60.2428 61.0117 59.7329 60.7731 59.0652C60.5344 58.3948 60.4151 57.5851 60.4151 56.6363C60.4151 55.6931 60.5344 54.8877 60.7731 54.2201C61.0146 53.5496 61.3612 53.0383 61.8129 52.686C62.2674 52.3309 62.8129 52.1533 63.4492 52.1533C64.0856 52.1533 64.6296 52.3309 65.0813 52.686C65.5359 53.0383 65.8825 53.5496 66.1211 54.2201C66.3626 54.8877 66.4833 55.6931 66.4833 56.6363C66.4833 57.5851 66.364 58.3948 66.1254 59.0652C65.8867 59.7329 65.5415 60.2428 65.0898 60.5951C64.6381 60.9445 64.0913 61.1192 63.4492 61.1192ZM63.4492 60.1817C64.0856 60.1817 64.5799 59.8749 64.9322 59.2613C65.2844 58.6476 65.4606 57.7726 65.4606 56.6363C65.4606 55.8806 65.3796 55.2371 65.2177 54.7059C65.0586 54.1746 64.8285 53.7698 64.5273 53.4914C64.229 53.213 63.8697 53.0738 63.4492 53.0738C62.8185 53.0738 62.3256 53.3848 61.9705 54.007C61.6154 54.6263 61.4379 55.5027 61.4379 56.6363C61.4379 57.3919 61.5174 58.034 61.6765 58.5624C61.8356 59.0908 62.0643 59.4928 62.3626 59.7684C62.6637 60.0439 63.0259 60.1817 63.4492 60.1817ZM67.8981 59.2101V58.3408L71.7333 52.2726H72.364V53.6192H71.9379L69.0401 58.2044V58.2726H74.2049V59.2101H67.8981ZM72.006 60.9999V58.9459V58.5411V52.2726H73.0117V60.9999H72.006Z" fill="#AAAAAA"/>
<path d="M17.1136 67.2727V76H16.0568V67.2727H17.1136ZM19.0962 76V69.4545H20.0678V70.4773H20.1531C20.2894 70.1278 20.5096 69.8565 20.8136 69.6634C21.1175 69.4673 21.4826 69.3693 21.9087 69.3693C22.3406 69.3693 22.6999 69.4673 22.9869 69.6634C23.2766 69.8565 23.5025 70.1278 23.6644 70.4773H23.7326C23.9002 70.1392 24.1516 69.8707 24.4869 69.6719C24.8221 69.4702 25.2241 69.3693 25.6928 69.3693C26.2781 69.3693 26.7567 69.5526 27.1289 69.919C27.5011 70.2827 27.6871 70.8494 27.6871 71.6193V76H26.6815V71.6193C26.6815 71.1364 26.5494 70.7912 26.2852 70.5838C26.021 70.3764 25.7099 70.2727 25.3519 70.2727C24.8917 70.2727 24.5352 70.4119 24.2823 70.6903C24.0295 70.9659 23.9031 71.3153 23.9031 71.7386V76H22.8803V71.517C22.8803 71.1449 22.7596 70.8452 22.5181 70.6179C22.2766 70.3878 21.9656 70.2727 21.5849 70.2727C21.3235 70.2727 21.0792 70.3423 20.8519 70.4815C20.6275 70.6207 20.4457 70.8139 20.3065 71.0611C20.1701 71.3054 20.1019 71.5881 20.1019 71.9091V76H19.0962ZM31.4521 76.1534C31.0373 76.1534 30.6609 76.0753 30.3228 75.919C29.9847 75.7599 29.7163 75.5312 29.5174 75.233C29.3185 74.9318 29.2191 74.5682 29.2191 74.142C29.2191 73.767 29.293 73.4631 29.4407 73.2301C29.5884 72.9943 29.7859 72.8097 30.033 72.6761C30.2802 72.5426 30.5529 72.4432 30.8512 72.3778C31.1523 72.3097 31.4549 72.2557 31.7589 72.2159C32.1566 72.1648 32.479 72.1264 32.7262 72.1009C32.9762 72.0724 33.158 72.0256 33.2717 71.9602C33.3881 71.8949 33.4464 71.7812 33.4464 71.6193V71.5852C33.4464 71.1648 33.3313 70.8381 33.1012 70.6051C32.8739 70.3722 32.5288 70.2557 32.0657 70.2557C31.5856 70.2557 31.2092 70.3608 30.9364 70.571C30.6637 70.7812 30.4719 71.0057 30.3612 71.2443L29.4066 70.9034C29.5771 70.5057 29.8043 70.196 30.0884 69.9744C30.3754 69.75 30.6879 69.5937 31.0259 69.5057C31.3668 69.4148 31.7021 69.3693 32.0316 69.3693C32.2418 69.3693 32.4833 69.3949 32.756 69.446C33.0316 69.4943 33.2972 69.5952 33.5529 69.7486C33.8114 69.902 34.0259 70.1335 34.1964 70.4432C34.3668 70.7528 34.4521 71.1676 34.4521 71.6875V76H33.4464V75.1136H33.3952C33.3271 75.2557 33.2134 75.4077 33.0543 75.5696C32.8952 75.7315 32.6836 75.8693 32.4194 75.983C32.1552 76.0966 31.8327 76.1534 31.4521 76.1534ZM31.6055 75.25C32.0032 75.25 32.3384 75.1719 32.6112 75.0156C32.8867 74.8594 33.0941 74.6577 33.2333 74.4105C33.3754 74.1634 33.4464 73.9034 33.4464 73.6307V72.7102C33.4038 72.7614 33.31 72.8082 33.1651 72.8509C33.0231 72.8906 32.8583 72.9261 32.6708 72.9574C32.4862 72.9858 32.3058 73.0114 32.1296 73.0341C31.9563 73.054 31.8157 73.071 31.7077 73.0852C31.4464 73.1193 31.2021 73.1747 30.9748 73.2514C30.7504 73.3253 30.5685 73.4375 30.4293 73.5881C30.293 73.7358 30.2248 73.9375 30.2248 74.1932C30.2248 74.5426 30.354 74.8068 30.6126 74.9858C30.8739 75.1619 31.2049 75.25 31.6055 75.25ZM38.9297 78.5909C38.4439 78.5909 38.0263 78.5284 37.6768 78.4034C37.3274 78.2812 37.0362 78.1193 36.8033 77.9176C36.5732 77.7188 36.3899 77.5057 36.2536 77.2784L37.0547 76.7159C37.1456 76.8352 37.2607 76.9716 37.3999 77.125C37.5391 77.2812 37.7294 77.4162 37.9709 77.5298C38.2152 77.6463 38.5348 77.7045 38.9297 77.7045C39.4581 77.7045 39.8942 77.5767 40.2379 77.321C40.5817 77.0653 40.7536 76.6648 40.7536 76.1193V74.7898H40.6683C40.5945 74.9091 40.4893 75.0568 40.353 75.233C40.2195 75.4062 40.0263 75.5611 39.7734 75.6974C39.5234 75.831 39.1854 75.8977 38.7592 75.8977C38.2308 75.8977 37.7564 75.7727 37.3359 75.5227C36.9183 75.2727 36.5874 74.9091 36.343 74.4318C36.1016 73.9545 35.9808 73.375 35.9808 72.6932C35.9808 72.0227 36.0987 71.4389 36.3345 70.9418C36.5703 70.4418 36.8984 70.0554 37.3189 69.7827C37.7393 69.5071 38.2251 69.3693 38.7763 69.3693C39.2024 69.3693 39.5405 69.4403 39.7905 69.5824C40.0433 69.7216 40.2365 69.8807 40.37 70.0597C40.5064 70.2358 40.6115 70.3807 40.6854 70.4943H40.7876V69.4545H41.7592V76.1875C41.7592 76.75 41.6314 77.2074 41.3757 77.5597C41.1229 77.9148 40.782 78.1747 40.353 78.3395C39.9268 78.5071 39.4524 78.5909 38.9297 78.5909ZM38.8956 74.9943C39.299 74.9943 39.6399 74.902 39.9183 74.7173C40.1967 74.5327 40.4084 74.267 40.5533 73.9205C40.6982 73.5739 40.7706 73.1591 40.7706 72.6761C40.7706 72.2045 40.6996 71.7884 40.5575 71.4276C40.4155 71.0668 40.2053 70.7841 39.9268 70.5795C39.6484 70.375 39.3047 70.2727 38.8956 70.2727C38.4695 70.2727 38.1143 70.3807 37.8303 70.5966C37.549 70.8125 37.3374 71.1023 37.1953 71.4659C37.0561 71.8295 36.9865 72.233 36.9865 72.6761C36.9865 73.1307 37.0575 73.5327 37.1996 73.8821C37.3445 74.2287 37.5575 74.5014 37.8388 74.7003C38.1229 74.8963 38.4751 74.9943 38.8956 74.9943ZM46.3445 76.1364C45.7138 76.1364 45.1697 75.9972 44.7124 75.7188C44.2578 75.4375 43.907 75.0455 43.6598 74.5426C43.4155 74.0369 43.2933 73.4489 43.2933 72.7784C43.2933 72.108 43.4155 71.517 43.6598 71.0057C43.907 70.4915 44.2507 70.0909 44.6911 69.804C45.1342 69.5142 45.6513 69.3693 46.2422 69.3693C46.5831 69.3693 46.9197 69.4261 47.2521 69.5398C47.5845 69.6534 47.8871 69.8381 48.1598 70.0938C48.4325 70.3466 48.6499 70.6818 48.8118 71.0994C48.9737 71.517 49.0547 72.0312 49.0547 72.642V73.0682H44.0092V72.1989H48.032C48.032 71.8295 47.9581 71.5 47.8104 71.2102C47.6655 70.9205 47.4581 70.6918 47.1882 70.5241C46.9212 70.3565 46.6058 70.2727 46.2422 70.2727C45.8416 70.2727 45.495 70.3722 45.2024 70.571C44.9126 70.767 44.6896 71.0227 44.5334 71.3381C44.3771 71.6534 44.299 71.9915 44.299 72.3523V72.9318C44.299 73.4261 44.3842 73.8452 44.5547 74.1889C44.728 74.5298 44.968 74.7898 45.2749 74.9688C45.5817 75.1449 45.9382 75.233 46.3445 75.233C46.6087 75.233 46.8473 75.196 47.0604 75.1222C47.2763 75.0455 47.4624 74.9318 47.6186 74.7812C47.7749 74.6278 47.8956 74.4375 47.9808 74.2102L48.9524 74.483C48.8501 74.8125 48.6783 75.1023 48.4368 75.3523C48.1953 75.5994 47.897 75.7926 47.5419 75.9318C47.1868 76.0682 46.7876 76.1364 46.3445 76.1364ZM61.0163 67.2727V76H59.9936L55.2379 69.1477H55.1527V76H54.0959V67.2727H55.1186L59.8913 74.142H59.9766V67.2727H61.0163ZM65.6538 76.1364C65.0629 76.1364 64.5444 75.9957 64.0984 75.7145C63.6552 75.4332 63.3086 75.0398 63.0586 74.5341C62.8114 74.0284 62.6879 73.4375 62.6879 72.7614C62.6879 72.0795 62.8114 71.4844 63.0586 70.9759C63.3086 70.4673 63.6552 70.0724 64.0984 69.7912C64.5444 69.5099 65.0629 69.3693 65.6538 69.3693C66.2447 69.3693 66.7617 69.5099 67.2049 69.7912C67.6509 70.0724 67.9975 70.4673 68.2447 70.9759C68.4947 71.4844 68.6197 72.0795 68.6197 72.7614C68.6197 73.4375 68.4947 74.0284 68.2447 74.5341C67.9975 75.0398 67.6509 75.4332 67.2049 75.7145C66.7617 75.9957 66.2447 76.1364 65.6538 76.1364ZM65.6538 75.233C66.1026 75.233 66.4719 75.1179 66.7617 74.8878C67.0515 74.6577 67.266 74.3551 67.4052 73.9801C67.5444 73.6051 67.614 73.1989 67.614 72.7614C67.614 72.3239 67.5444 71.9162 67.4052 71.5384C67.266 71.1605 67.0515 70.8551 66.7617 70.6222C66.4719 70.3892 66.1026 70.2727 65.6538 70.2727C65.2049 70.2727 64.8356 70.3892 64.5458 70.6222C64.256 70.8551 64.0415 71.1605 63.9023 71.5384C63.7631 71.9162 63.6935 72.3239 63.6935 72.7614C63.6935 73.1989 63.7631 73.6051 63.9023 73.9801C64.0415 74.3551 64.256 74.6577 64.5458 74.8878C64.8356 75.1179 65.2049 75.233 65.6538 75.233ZM73.0014 69.4545V70.3068H69.6094V69.4545H73.0014ZM70.598 67.8864H71.6037V74.125C71.6037 74.4091 71.6449 74.6222 71.7273 74.7642C71.8125 74.9034 71.9205 74.9972 72.0511 75.0455C72.1847 75.0909 72.3253 75.1136 72.473 75.1136C72.5838 75.1136 72.6747 75.108 72.7457 75.0966C72.8168 75.0824 72.8736 75.071 72.9162 75.0625L73.1207 75.9659C73.0526 75.9915 72.9574 76.017 72.8352 76.0426C72.7131 76.071 72.5582 76.0852 72.3707 76.0852C72.0866 76.0852 71.8082 76.0241 71.5355 75.902C71.2656 75.7798 71.0412 75.5938 70.8622 75.3438C70.6861 75.0938 70.598 74.7784 70.598 74.3977V67.8864ZM78.0256 76V67.2727H83.2585V68.2102H79.0824V71.1591H82.8665V72.0966H79.0824V76H78.0256ZM87.1108 76.1364C86.5199 76.1364 86.0014 75.9957 85.5554 75.7145C85.1122 75.4332 84.7656 75.0398 84.5156 74.5341C84.2685 74.0284 84.1449 73.4375 84.1449 72.7614C84.1449 72.0795 84.2685 71.4844 84.5156 70.9759C84.7656 70.4673 85.1122 70.0724 85.5554 69.7912C86.0014 69.5099 86.5199 69.3693 87.1108 69.3693C87.7017 69.3693 88.2188 69.5099 88.6619 69.7912C89.108 70.0724 89.4545 70.4673 89.7017 70.9759C89.9517 71.4844 90.0767 72.0795 90.0767 72.7614C90.0767 73.4375 89.9517 74.0284 89.7017 74.5341C89.4545 75.0398 89.108 75.4332 88.6619 75.7145C88.2188 75.9957 87.7017 76.1364 87.1108 76.1364ZM87.1108 75.233C87.5597 75.233 87.929 75.1179 88.2188 74.8878C88.5085 74.6577 88.723 74.3551 88.8622 73.9801C89.0014 73.6051 89.071 73.1989 89.071 72.7614C89.071 72.3239 89.0014 71.9162 88.8622 71.5384C88.723 71.1605 88.5085 70.8551 88.2188 70.6222C87.929 70.3892 87.5597 70.2727 87.1108 70.2727C86.6619 70.2727 86.2926 70.3892 86.0028 70.6222C85.7131 70.8551 85.4986 71.1605 85.3594 71.5384C85.2202 71.9162 85.1506 72.3239 85.1506 72.7614C85.1506 73.1989 85.2202 73.6051 85.3594 73.9801C85.4986 74.3551 85.7131 74.6577 86.0028 74.8878C86.2926 75.1179 86.6619 75.233 87.1108 75.233ZM95.7369 73.3239V69.4545H96.7425V76H95.7369V74.892H95.6687C95.5153 75.2244 95.2766 75.5071 94.9528 75.7401C94.6289 75.9702 94.2198 76.0852 93.7255 76.0852C93.3164 76.0852 92.9528 75.9957 92.6346 75.8168C92.3164 75.6349 92.0664 75.3622 91.8846 74.9986C91.7028 74.6321 91.6119 74.1705 91.6119 73.6136V69.4545H92.6175V73.5455C92.6175 74.0227 92.7511 74.4034 93.0181 74.6875C93.288 74.9716 93.6317 75.1136 94.0494 75.1136C94.2994 75.1136 94.5536 75.0497 94.8121 74.9219C95.0735 74.794 95.2923 74.598 95.4684 74.3338C95.6474 74.0696 95.7369 73.733 95.7369 73.3239ZM99.5902 72.0625V76H98.5845V69.4545H99.5561V70.4773H99.6413C99.7947 70.1449 100.028 69.8778 100.34 69.6761C100.653 69.4716 101.056 69.3693 101.55 69.3693C101.994 69.3693 102.381 69.4602 102.714 69.642C103.046 69.821 103.305 70.0938 103.489 70.4602C103.674 70.8239 103.766 71.2841 103.766 71.8409V76H102.761V71.9091C102.761 71.3949 102.627 70.9943 102.36 70.7074C102.093 70.4176 101.727 70.2727 101.261 70.2727C100.94 70.2727 100.653 70.3423 100.4 70.4815C100.15 70.6207 99.9524 70.8239 99.8075 71.0909C99.6626 71.358 99.5902 71.6818 99.5902 72.0625ZM108.076 76.1364C107.53 76.1364 107.049 75.9986 106.631 75.723C106.213 75.4446 105.887 75.0526 105.651 74.5469C105.415 74.0384 105.297 73.4375 105.297 72.7443C105.297 72.0568 105.415 71.4602 105.651 70.9545C105.887 70.4489 106.215 70.0582 106.635 69.7827C107.056 69.5071 107.542 69.3693 108.093 69.3693C108.519 69.3693 108.855 69.4403 109.103 69.5824C109.353 69.7216 109.543 69.8807 109.674 70.0597C109.807 70.2358 109.911 70.3807 109.985 70.4943H110.07V67.2727H111.076V76H110.104V74.9943H109.985C109.911 75.1136 109.806 75.2642 109.669 75.446C109.533 75.625 109.338 75.7855 109.086 75.9276C108.833 76.0668 108.496 76.1364 108.076 76.1364ZM108.212 75.233C108.615 75.233 108.956 75.1278 109.235 74.9176C109.513 74.7045 109.725 74.4105 109.87 74.0355C110.015 73.6577 110.087 73.2216 110.087 72.7273C110.087 72.2386 110.016 71.8111 109.874 71.4446C109.732 71.0753 109.522 70.7884 109.243 70.5838C108.965 70.3764 108.621 70.2727 108.212 70.2727C107.786 70.2727 107.431 70.3821 107.147 70.6009C106.865 70.8168 106.654 71.1108 106.512 71.483C106.373 71.8523 106.303 72.267 106.303 72.7273C106.303 73.1932 106.374 73.6165 106.516 73.9972C106.661 74.375 106.874 74.6761 107.155 74.9006C107.439 75.1222 107.792 75.233 108.212 75.233Z" fill="#AAAAAA"/>
</g>
<defs>
<clipPath id="clip0_110_302">
<rect width="128" height="128" fill="white"/>
</clipPath>
</defs>
</svg>

<svg width="128" height="128" fill="none" xmlns="http://www.w3.org/2000/svg"><g clip-path="url(#prefix__clip0_110_302)"><path d="M128 0H0v128h128V0z" fill="#EFEFEF"/><path d="M52.699 59.21v-.87l3.835-6.067h.63v1.346h-.425l-2.898 4.585v.069h5.165v.937h-6.307zM56.807 61v-8.727h1.005V61h-1.005zm6.642.12c-.642 0-1.189-.175-1.64-.525-.452-.352-.797-.862-1.036-1.53-.239-.67-.358-1.48-.358-2.429 0-.943.12-1.748.358-2.416.242-.67.588-1.182 1.04-1.534.454-.355 1-.533 1.636-.533.637 0 1.18.178 1.632.533.455.352.801.864 1.04 1.534.242.668.362 1.473.362 2.416 0 .95-.119 1.759-.358 2.43-.238.667-.584 1.177-1.035 1.53-.452.349-.999.523-1.64.523zm0-.938c.637 0 1.13-.307 1.483-.92.352-.614.529-1.49.529-2.626 0-.755-.081-1.399-.243-1.93-.16-.531-.39-.936-.69-1.215a1.524 1.524 0 00-1.079-.417c-.63 0-1.123.31-1.478.933-.356.62-.533 1.496-.533 2.63 0 .755.08 1.397.238 1.925.16.529.388.93.687 1.206.3.276.663.414 1.086.414zm4.45-.972v-.87l3.834-6.067h.631v1.346h-.426l-2.898 4.585v.069h5.165v.937h-6.307zM72.005 61v-8.727h1.006V61h-1.006zM17.114 67.273V76h-1.057v-8.727h1.057zM19.096 76v-6.546h.972v1.023h.085c.136-.35.357-.62.66-.814.305-.196.67-.294 1.096-.294.432 0 .79.098 1.078.294.29.194.516.465.677.814h.069c.167-.338.419-.606.754-.805.335-.202.737-.303 1.206-.303.585 0 1.064.184 1.436.55.372.364.558.93.558 1.7V76h-1.006v-4.38c0-.484-.132-.829-.396-1.036a1.467 1.467 0 00-.933-.311c-.46 0-.817.139-1.07.417-.253.276-.379.625-.379 1.049V76H22.88v-4.483c0-.372-.12-.672-.362-.9-.241-.23-.552-.344-.933-.344-.262 0-.506.07-.733.209-.224.139-.406.332-.546.58a1.71 1.71 0 00-.204.847V76h-1.006zm12.356.153a2.66 2.66 0 01-1.13-.234 1.939 1.939 0 01-.805-.686c-.198-.301-.298-.665-.298-1.091 0-.375.074-.679.222-.912.147-.236.345-.42.592-.554.247-.133.52-.233.818-.298.301-.068.604-.122.908-.162.398-.051.72-.09.967-.115.25-.029.432-.075.546-.14.116-.066.174-.18.174-.342v-.034c0-.42-.115-.747-.345-.98-.227-.233-.572-.35-1.035-.35-.48 0-.857.106-1.13.316-.272.21-.464.435-.575.673l-.954-.34c.17-.398.397-.708.681-.93.287-.224.6-.38.938-.468.34-.091.676-.137 1.006-.137.21 0 .451.026.724.077.276.048.541.15.797.303.258.153.473.385.643.694.17.31.256.725.256 1.245V76h-1.006v-.886h-.05a1.767 1.767 0 01-.342.456c-.159.162-.37.3-.635.413-.264.114-.586.17-.967.17zm.153-.903c.398 0 .733-.078 1.006-.234a1.595 1.595 0 00.835-1.385v-.92c-.042.05-.136.097-.28.14-.143.04-.308.075-.495.106a22.303 22.303 0 01-.963.128c-.262.034-.506.09-.733.166a1.264 1.264 0 00-.546.337c-.136.148-.204.35-.204.605 0 .35.129.614.388.793.26.176.592.264.992.264zm7.325 3.34c-.486 0-.904-.062-1.253-.187a2.659 2.659 0 01-.874-.485 2.655 2.655 0 01-.55-.64l.802-.562c.09.12.206.256.345.409.14.156.33.291.57.405.245.116.565.174.96.174.528 0 .964-.127 1.308-.383.344-.256.516-.656.516-1.202v-1.33h-.086c-.074.12-.179.268-.315.444a1.788 1.788 0 01-.58.464c-.25.134-.588.2-1.014.2a2.731 2.731 0 01-1.423-.374 2.631 2.631 0 01-.993-1.091c-.241-.478-.362-1.057-.362-1.739 0-.67.118-1.254.353-1.751.236-.5.564-.887.985-1.16.42-.275.906-.413 1.457-.413.426 0 .764.071 1.014.213.253.14.447.299.58.478.136.176.242.32.315.434h.103v-1.04h.971v6.734c0 .562-.128 1.02-.383 1.372a2.184 2.184 0 01-1.023.78 3.86 3.86 0 01-1.423.25zm-.034-3.596c.403 0 .744-.092 1.022-.277.279-.184.49-.45.635-.796.145-.347.218-.762.218-1.245a3.39 3.39 0 00-.214-1.248 1.873 1.873 0 00-.63-.849c-.279-.204-.622-.306-1.031-.306-.427 0-.782.108-1.066.324a1.972 1.972 0 00-.635.869 3.36 3.36 0 00-.209 1.21c0 .455.072.857.214 1.206.144.347.357.62.639.818.284.196.636.294 1.057.294zm7.448 1.142c-.63 0-1.174-.139-1.632-.417a2.803 2.803 0 01-1.052-1.176c-.244-.506-.367-1.094-.367-1.765 0-.67.123-1.261.367-1.772a2.89 2.89 0 011.031-1.202c.443-.29.96-.435 1.551-.435.341 0 .678.057 1.01.17.332.114.635.3.908.555.273.253.49.588.652 1.005.162.418.243.932.243 1.543v.426h-5.046v-.87h4.023c0-.368-.074-.698-.222-.988a1.67 1.67 0 00-.622-.686 1.742 1.742 0 00-.946-.251c-.4 0-.747.1-1.04.298-.29.196-.512.452-.669.767a2.253 2.253 0 00-.234 1.014v.58c0 .494.085.913.256 1.257.173.34.413.6.72.78a2.11 2.11 0 001.07.264c.264 0 .502-.037.715-.11.216-.078.402-.191.559-.342.156-.153.277-.344.362-.57l.971.272c-.102.33-.274.62-.515.87-.242.246-.54.44-.895.579a3.318 3.318 0 01-1.198.204zm14.672-8.863V76h-1.022l-4.756-6.852h-.085V76h-1.057v-8.727h1.023l4.772 6.869h.086v-6.87h1.04zm4.638 8.863c-.591 0-1.11-.14-1.556-.421a2.866 2.866 0 01-1.04-1.18c-.247-.507-.37-1.097-.37-1.774 0-.681.123-1.277.37-1.785a2.86 2.86 0 011.04-1.185c.446-.281.965-.422 1.556-.422.59 0 1.108.14 1.55.422.447.281.794.676 1.04 1.185.25.508.376 1.103.376 1.785 0 .677-.125 1.267-.375 1.773-.248.506-.594.9-1.04 1.18-.443.282-.96.422-1.551.422zm0-.903c.449 0 .818-.115 1.108-.345.29-.23.504-.533.643-.908.14-.375.209-.781.209-1.219 0-.437-.07-.845-.209-1.223a2.06 2.06 0 00-.643-.916c-.29-.233-.66-.35-1.108-.35-.45 0-.818.117-1.108.35a2.06 2.06 0 00-.644.916 3.51 3.51 0 00-.209 1.223c0 .438.07.844.21 1.22.139.374.353.677.643.907.29.23.659.345 1.108.345zM73 69.454v.853H69.61v-.853h3.392zm-2.403-1.568h1.006v6.239c0 .284.04.497.123.64a.64.64 0 00.324.28c.134.046.274.069.422.069.11 0 .202-.006.273-.017l.17-.034.205.903a2.042 2.042 0 01-.286.077 2.102 2.102 0 01-.464.042c-.284 0-.563-.06-.835-.183a1.66 1.66 0 01-.674-.558c-.176-.25-.264-.566-.264-.946v-6.512zM78.026 76v-8.727h5.233v.937h-4.177v2.95h3.785v.937h-3.785V76h-1.056zm9.085.136c-.591 0-1.11-.14-1.556-.421a2.866 2.866 0 01-1.04-1.18c-.246-.507-.37-1.097-.37-1.774 0-.681.124-1.277.37-1.785a2.86 2.86 0 011.04-1.185c.446-.281.965-.422 1.556-.422.59 0 1.108.14 1.55.422a2.82 2.82 0 011.04 1.185c.25.508.376 1.103.376 1.785 0 .677-.125 1.267-.375 1.773-.248.506-.594.9-1.04 1.18-.443.282-.96.422-1.551.422zm0-.903c.449 0 .818-.115 1.108-.345.29-.23.504-.533.643-.908.14-.375.209-.781.209-1.219 0-.437-.07-.845-.209-1.223a2.061 2.061 0 00-.643-.916c-.29-.233-.66-.35-1.108-.35-.45 0-.818.117-1.108.35-.29.233-.504.538-.644.916a3.51 3.51 0 00-.208 1.223c0 .438.07.844.208 1.22.14.374.354.677.644.907.29.23.659.345 1.108.345zm8.626-1.91v-3.868h1.006V76h-1.006v-1.108h-.068a2.148 2.148 0 01-.716.848c-.324.23-.733.345-1.228.345-.409 0-.772-.09-1.09-.268a1.88 1.88 0 01-.75-.818c-.182-.367-.273-.828-.273-1.385v-4.16h1.006v4.092c0 .477.133.857.4 1.141.27.285.614.427 1.031.427.25 0 .505-.064.763-.192.261-.128.48-.324.656-.588.18-.264.269-.601.269-1.01zm3.853-1.26V76h-1.005v-6.546h.971v1.023h.085c.154-.332.387-.6.699-.8.313-.205.716-.308 1.21-.308.444 0 .831.091 1.164.273.332.179.591.452.775.818.185.364.277.824.277 1.38V76h-1.005v-4.09c0-.515-.134-.916-.401-1.203-.267-.29-.633-.434-1.099-.434-.321 0-.608.07-.861.209-.25.139-.448.342-.593.609-.144.267-.217.59-.217.972zm8.486 4.073a2.563 2.563 0 01-1.445-.413c-.418-.278-.744-.67-.98-1.176-.236-.509-.354-1.11-.354-1.803 0-.687.118-1.284.354-1.79.236-.505.564-.896.984-1.171.421-.276.907-.414 1.458-.414.426 0 .762.071 1.01.213.25.14.44.299.571.478.133.176.237.32.311.434h.085v-3.221h1.006V76h-.972v-1.006h-.119c-.074.12-.179.27-.316.452-.136.179-.331.34-.583.482-.253.139-.59.208-1.01.208zm.136-.903c.403 0 .744-.105 1.023-.315a1.98 1.98 0 00.635-.883c.145-.377.217-.813.217-1.308 0-.488-.071-.916-.213-1.282a1.863 1.863 0 00-.631-.861c-.278-.208-.622-.311-1.031-.311-.426 0-.781.11-1.065.328-.282.216-.493.51-.635.882a3.51 3.51 0 00-.209 1.244c0 .466.071.89.213 1.27.145.378.358.68.639.904.284.221.637.332 1.057.332z" fill="#AAA"/></g><defs><clipPath id="prefix__clip0_110_302"><path fill="#fff" d="M0 0h128v128H0z"/></clipPath></defs></svg>
